rospo-icon-theme-classic-common/22x22/apps/com.github.bcedu.shutdownscheduler.svg

<svg height="22" width="22" xmlns="http://www.w3.org/2000/svg"><circle cx="11" cy="11" fill="#4f4f4f" r="10"/><path d="m11 4.5c-3.8662 0-7 3.1338-7 7s3.1338 7 7 7 7-3.1338 7-7-3.1338-7-7-7zm0 2c2.7615 0 5 2.2385 5 5s-2.2385 5-5 5-5-2.2385-5-5 2.2385-5 5-5zm0 2c-.554 0-1 .46788-1 1.0469v3.9062c0 .579.446 1.0469 1 1.0469s1-.46788 1-1.0469v-3.9062c0-.5789-.446-1.0468-1-1.0468z" fill-rule="evenodd" opacity=".2"/><path d="m11 4c-3.8662 0-7 3.1338-7 7s3.1338 7 7 7 7-3.1338 7-7-3.1338-7-7-7zm0 2c2.7615 0 5 2.2385 5 5s-2.2385 5-5 5-5-2.238-5-5c0-2.7615 2.2385-5 5-5zm0 2c-.554 0-1 .46788-1 1.0469v3.9062c0 .579.446 1.047 1 1.047s1-.46788 1-1.0469v-3.9062c0-.5789-.446-1.0468-1-1.0468z" fill="#fff" fill-rule="evenodd"/><path d="m11 1a10 10 0 0 0 -10 10 10 10 0 0 0  .0098.293 10 10 0 0 1 9.9902-9.793 10 10 0 0 1 9.99 9.707 10 10 0 0 0  .01-.207 10 10 0 0 0 -10-10z" fill="#fff" opacity=".1"/><path d="m20.99 11.207a10 10 0 0 1 -9.99 9.793 10 10 0 0 1 -9.9902-9.707 10 10 0 0 0 -.0098.207 10 10 0 0 0 10 10 10 10 0 0 0 10-10 10 10 0 0 0 -.0098-.29297z" opacity=".2"/><circle cx="16.5" cy="16.5" fill="#cd4242" r="5.5"/><path d="m16.5 13a .5.5 0 0 0 -.5.5v2.5.455078.544922h3.5a.5.5 0 0 0  .5-.5.5.5 0 0 0 -.5-.5h-2.5v-2.5a.5.5 0 0 0 -.5-.5z" fill="#fff"/></svg>

<svg xmlns="http://www.w3.org/2000/svg" width="22" height="22" version="1">
 <circle style="fill:#4f4f4f" cx="11" cy="11" r="10"/>
 <path style="opacity:0.2;fill-rule:evenodd" d="m 11,4.5 c -3.8662,0 -7,3.1338 -7,7 0,3.8662 3.1338,7 7,7 3.8662,0 7,-3.1338 7,-7 0,-3.8662 -3.1338,-7 -7,-7 z m 0,2 c 2.7615,0 5,2.2385 5,5 0,2.7615 -2.2385,5 -5,5 -2.7615,0 -5,-2.2385 -5,-5 0,-2.7615 2.2385,-5 5,-5 z m 0,2 c -0.554,0 -1,0.46788 -1,1.0469 l 0,3.9062 c 0,0.579 0.446,1.0469 1,1.0469 0.554,0 1,-0.46788 1,-1.0469 L 12,9.5469 C 12,8.968 11.554,8.5001 11,8.5001 Z"/>
 <path style="fill:#ffffff;fill-rule:evenodd" d="m 11,4 c -3.8662,0 -7,3.1338 -7,7 0,3.8662 3.1338,7 7,7 3.8662,0 7,-3.1338 7,-7 0,-3.8662 -3.1338,-7 -7,-7 z m 0,2 c 2.7615,0 5,2.2385 5,5 0,2.7615 -2.2385,5 -5,5 C 8.2385,16 6,13.762 6,11 6,8.2385 8.2385,6 11,6 Z m 0,2 c -0.554,0 -1,0.46788 -1,1.0469 l 0,3.9062 c 0,0.579 0.446,1.047 1,1.047 0.554,0 1,-0.46788 1,-1.0469 L 12,9.047 C 12,8.4681 11.554,8.0002 11,8.0002 Z"/>
 <path style="opacity:0.1;fill:#ffffff" d="M 11,1 A 10,10 0 0 0 1,11 10,10 0 0 0 1.0098,11.293 10,10 0 0 1 11,1.5 10,10 0 0 1 20.99,11.207 10,10 0 0 0 21,11 10,10 0 0 0 11,1 Z"/>
 <path style="opacity:0.2" d="M 20.99,11.207 A 10,10 0 0 1 11,21 10,10 0 0 1 1.0098,11.293 10,10 0 0 0 1,11.5 a 10,10 0 0 0 10,10 10,10 0 0 0 10,-10 10,10 0 0 0 -0.0098,-0.29297 z"/>
 <circle style="fill:#cd4242" cx="16.5" cy="16.5" r="5.5"/>
 <path style="fill:#ffffff" d="M 16.5,13 A 0.5,0.5 0 0 0 16,13.5 L 16,16 16,16.455078 16,17 19.5,17 A 0.5,0.5 0 0 0 20,16.5 0.5,0.5 0 0 0 19.5,16 L 17,16 17,13.5 A 0.5,0.5 0 0 0 16.5,13 Z"/>
</svg>
